img/svg/icon-font/ruble.svg

<svg width="22" height="22" viewBox="0 0 22 22" fill="none" xmlns="http://www.w3.org/2000/svg">
<path d="M3.38912 17.6949C3.79143 17.3998 3.87829 16.8344 3.58318 16.4321C2.42193 14.8492 1.80813 12.9711 1.80813 11.0011C1.80813 5.93267 5.93158 1.80922 11 1.80922C16.0684 1.80922 20.1918 5.93267 20.1918 11.0011C20.1918 12.9711 19.578 14.8492 18.4167 16.4322C18.1216 16.8345 18.2085 17.3998 18.6108 17.6949C19.0139 17.9907 19.5791 17.9023 19.8736 17.5009C23.0136 13.2205 22.6989 7.14572 18.7771 3.22398C14.4788 -1.07434 7.52173 -1.07498 3.22285 3.22398C-0.698924 7.14572 -1.01361 13.2205 2.12639 17.5009C2.42145 17.9031 2.98681 17.99 3.38912 17.6949Z" fill="#4C51CC"/>
<path d="M12.3764 11.9033C14.1396 11.9033 15.5741 10.4688 15.5741 8.70561C15.5741 6.94239 14.1396 5.50788 12.3764 5.50788H9.16428C8.66534 5.50788 8.26088 5.91235 8.26088 6.41128V10.0966H7.32879C6.82986 10.0966 6.42539 10.501 6.42539 11C6.42539 11.4989 6.82986 11.9034 7.32879 11.9034H8.26088V12.8498H7.32879C6.82986 12.8498 6.42539 13.2543 6.42539 13.7532C6.42539 14.2521 6.82986 14.6566 7.32879 14.6566H8.26088V15.5887C8.26088 16.0876 8.66534 16.4921 9.16428 16.4921C9.66321 16.4921 10.0677 16.0876 10.0677 15.5887V14.6566H11.9175C12.4164 14.6566 12.8209 14.2521 12.8209 13.7532C12.8209 13.2543 12.4164 12.8498 11.9175 12.8498H10.0677V11.9034L12.3764 11.9033ZM13.7673 8.70556C13.7673 9.47255 13.1433 10.0965 12.3764 10.0965H10.0677V7.31459H12.3764C13.1433 7.31463 13.7673 7.93862 13.7673 8.70556Z" fill="#4C51CC"/>
<path d="M21.0948 20.1916H0.904624C0.405691 20.1916 0.00122694 20.5961 0.00122694 21.095C0.00122694 21.5939 0.405691 21.9984 0.904624 21.9984H21.0948C21.5938 21.9984 21.9982 21.5939 21.9982 21.095C21.9982 20.5961 21.5938 20.1916 21.0948 20.1916Z" fill="#4C51CC"/>
</svg>

<svg width="22" height="22" fill="none" xmlns="http://www.w3.org/2000/svg"><path d="M3.39 17.695a.903.903 0 00.193-1.263 9.12 9.12 0 01-1.775-5.43c0-5.07 4.124-9.193 9.192-9.193 5.068 0 9.192 4.124 9.192 9.192a9.12 9.12 0 01-1.775 5.431.903.903 0 101.457 1.069c3.14-4.28 2.825-10.355-1.097-14.277a10.992 10.992 0 00-15.554 0C-.7 7.146-1.014 13.221 2.126 17.501a.904.904 0 001.263.194z" fill="#4C51CC"/><path d="M12.376 11.903a3.201 3.201 0 003.198-3.197 3.201 3.201 0 00-3.198-3.198H9.164a.903.903 0 00-.903.903v3.686h-.932a.903.903 0 100 1.806h.932v.947h-.932a.903.903 0 000 1.807h.932v.932a.903.903 0 001.807 0v-.932h1.85a.903.903 0 000-1.807h-1.85v-.947h2.308zm1.391-3.197c0 .767-.624 1.39-1.39 1.39h-2.31v-2.78h2.31c.766 0 1.39.624 1.39 1.39zm7.328 11.486H.905a.903.903 0 000 1.806h20.19a.903.903 0 100-1.806z" fill="#4C51CC"/></svg>
